images/logo.svg

<svg width="235" height="50" viewBox="0 0 235 50" fill="none" xmlns="http://www.w3.org/2000/svg">
<path d="M57.0513 15.7405H63.5399L66.5022 27.7304L73.414 15.7405H79.1269L82.1596 27.8715L89.4241 15.7405H95.9833L84.7692 34.2896H77.1521L74.8246 24.345L69.1823 34.2896H61.7062L57.0513 15.7405Z" fill="black"/>
<path d="M97.817 15.7403H104.165L100.92 34.2895H94.5726L97.817 15.7403ZM98.1696 9.95693C98.5928 7.55894 100.144 6.57153 102.542 6.57153C104.94 6.57153 106.21 7.55894 105.787 9.95693C105.364 12.3549 103.812 13.3423 101.343 13.3423C98.9454 13.3423 97.7464 12.4254 98.1696 9.95693Z" fill="black"/>
<path d="M108.044 15.7402H114.956L112.91 23.3574H113.193C115.026 17.8561 118.13 15.1055 123.842 15.1055C129.062 15.176 130.966 17.574 129.485 26.1785L128.074 34.2188H121.727L122.996 26.8133C123.913 21.5941 122.855 19.9014 119.54 19.9014C116.084 19.9014 113.122 23.4279 112.205 28.5765L111.218 34.2188H104.87L108.044 15.7402Z" fill="black"/>
<path d="M132.223 40.3549L133.21 34.9241C134.55 35.841 138.006 36.6168 141.744 36.6168C147.104 36.6168 149.15 34.8536 150.208 30.1282L150.49 28.7881C148.797 32.5261 144.847 34.4304 140.404 34.4304C134.55 34.4304 131.165 30.904 132.223 24.8385C133.21 18.9846 137.936 15.1055 143.437 15.1055C147.951 15.1055 151.336 17.5035 151.477 21.7352H152.041L152.535 15.7402H158.812L155.92 32.0324C154.721 38.7327 149.22 41.6949 141.885 41.6949C138.006 41.6949 134.973 41.1307 132.223 40.3549ZM150.208 24.909C150.772 21.7352 148.162 20.1836 145.059 20.1836C141.885 20.1836 138.923 21.7352 138.359 24.909C137.794 28.1533 140.192 29.7755 143.366 29.7755C146.47 29.846 149.643 28.1533 150.208 24.909Z" fill="black"/>
<path d="M159.165 33.4431L160.081 28.0828C162.973 29.2818 165.512 29.7755 168.757 29.7755C172.777 29.7755 174.54 29.4229 174.751 28.2944C175.316 25.3322 159.094 29.3524 160.505 21.4531C161.28 17.1508 166.006 15.176 172.495 15.176C174.751 15.176 178.49 15.5992 181.593 16.234L180.676 21.4531C178.137 20.8889 175.245 20.3952 172.424 20.3952C168.545 20.3952 166.782 20.8184 166.57 21.7352C166.147 24.3448 182.298 20.5362 180.888 28.6471C180.112 33.0904 175.386 34.8536 168.898 34.8536C166.006 34.8536 162.127 34.2894 159.165 33.4431Z" fill="black"/>
<path d="M205.784 34.2894H198.872L200.918 26.6723H200.636C198.802 32.1735 195.699 34.9242 189.986 34.9242C184.767 34.8536 182.862 32.4556 184.414 23.8511L185.824 15.8108H192.172L190.903 23.2163C189.986 28.4355 191.044 30.1282 194.358 30.1282C197.814 30.1282 200.777 26.6017 201.764 21.5236L202.751 15.8813H209.099L205.784 34.2894Z" fill="black"/>
<path d="M212.837 15.7403H219.185L215.941 34.2895H209.593L212.837 15.7403ZM213.119 9.95693C213.543 7.55894 215.094 6.57153 217.563 6.57153C219.961 6.57153 221.23 7.55894 220.807 9.95693C220.384 12.3549 218.832 13.3423 216.364 13.3423C213.966 13.3423 212.767 12.4254 213.119 9.95693Z" fill="black"/>
<path d="M222.006 27.5892L223.276 20.3248H220.878L221.724 15.6698H224.616L225.391 11.2265L231.386 10.4507L230.47 15.6698H234.983L234.137 20.3248H229.623L228.565 26.4608C228.072 29.4935 227.93 30.3399 230.681 30.3399C231.175 30.3399 231.739 30.2693 232.444 30.2693L231.81 33.9369C229.976 34.4306 228.354 34.7127 226.308 34.7127C221.442 34.6422 221.019 32.8789 222.006 27.5892Z" fill="black"/>
<circle cx="25" cy="25" r="25" fill="#C2FF46"/>
<path d="M9.66864 27.4233L9 36.3067C10.8149 39.4589 17.6923 44.9035 23.9966 44.999C33.3576 45.0945 37.7515 36.3067 37.7515 36.3067C34.7904 38.2171 32.88 38.5037 29.7278 38.5992C20.94 38.7902 12.6298 32.5814 9.66864 27.4233Z" fill="black"/>
<path d="M43.1964 19.3041C43.1009 19.2086 43.0054 19.1131 42.9099 19.0176C43.3875 18.8265 44.0561 18.3489 44.0561 17.6803C44.0561 16.6296 40.5219 11.8536 39.6622 11.9491C39.1846 12.0446 38.6115 12.5222 38.2294 12.9043C36.9876 11.567 35.5548 10.2297 33.931 9.6566C33.931 9.56108 33.931 9.46556 33.931 9.37004C34.122 7.65068 33.8355 5.54924 32.5937 5.07164C32.3071 4.97612 31.9251 4.97612 31.6385 5.07164C30.6833 5.3582 29.7281 7.36412 28.6774 9.179C26.767 9.37004 24.9521 9.84764 23.1372 10.6118C22.6596 9.179 21.6089 8.03276 20.2716 7.17308C18.5523 6.21788 17.3105 6.50444 16.5463 6.791C15.6867 7.07756 14.9225 8.2238 14.6359 9.75212C14.1583 11.6625 14.7315 14.2416 16.4508 15.9609C16.1643 16.343 15.8777 16.8206 15.6867 17.2982C13.6807 21.119 14.0628 26.4681 16.7374 31.0531C19.0299 34.9694 25.1431 37.0708 30.5878 37.0708C33.2623 37.0708 35.8414 36.5932 37.6563 35.447C39.9487 34.1097 41.5726 31.6262 42.9099 29.1427C42.9099 29.1427 42.9099 29.1427 42.9099 29.0472C43.674 27.6144 44.2471 26.086 44.8203 24.8443L45.2023 23.7936C45.6799 22.2652 44.4382 20.7369 43.1964 19.3041ZM32.2116 6.21788C32.4027 6.40892 32.7847 7.36412 32.5937 9.08348H32.4982C32.2116 9.08348 31.9251 8.98796 31.6385 8.98796C31.6385 8.7014 31.6385 8.51036 31.6385 8.12828C31.734 7.07756 32.0206 6.40892 32.2116 6.21788ZM16.0687 10.0387C16.2598 8.98796 16.7374 8.2238 17.406 7.93724C17.5971 7.7462 17.8836 7.7462 18.0747 7.7462C18.6478 7.7462 19.2209 7.93724 19.6985 8.2238C20.8447 8.89244 21.6089 9.84764 21.991 11.0894C21.7044 11.2804 21.4179 11.376 21.1313 11.567C20.7492 11.0894 20.3671 10.5163 19.9851 10.0387C19.794 9.84764 18.8388 8.98796 17.8836 9.179C17.7881 9.179 17.7881 9.27452 17.7881 9.27452C17.7881 9.37004 17.7881 9.37004 17.8836 9.37004C18.5523 9.37004 19.0299 9.94316 19.4119 10.5163C19.794 10.9939 19.9851 11.6625 20.1761 12.2356C19.1254 12.9998 18.0747 13.8595 17.3105 14.9102C16.0687 13.4774 15.6867 11.567 16.0687 10.0387ZM43.8651 23.2204L43.483 24.1756C42.9099 25.5129 42.3367 27.0412 41.5726 28.474C41.095 29.3337 40.3308 29.8113 39.0891 30.0979C39.8532 29.0472 40.6174 27.4233 40.6174 26.086C40.7129 26.086 40.7129 25.9905 40.8084 25.895L42.7188 23.8891C43.1964 23.507 43.2919 22.8384 42.9099 22.6473C41.8591 22.2652 39.3756 22.9339 38.4204 23.507C37.8473 23.7936 37.8473 24.4622 38.2294 24.7488L39.5667 26.086C39.5667 26.086 39.5667 26.086 39.6622 26.086C39.6622 27.0412 39.0891 28.283 38.4204 29.2382C38.1339 29.7158 37.8473 30.0024 37.6563 30.1934C35.5548 30.1934 33.6444 29.4292 33.0713 29.0472C33.1668 29.0472 33.1668 29.0472 33.2623 28.9516C33.5489 28.8561 33.931 28.6651 34.2175 28.474V28.3785C33.8355 28.092 33.4534 27.9964 33.0713 28.092C32.6892 28.092 32.2116 28.3785 31.9251 28.7606C31.6385 29.1427 31.543 29.6203 31.543 30.0024C31.543 30.3844 31.6385 30.7665 31.734 31.1486H31.8295C31.8295 30.7665 31.9251 30.3844 32.0206 30.0979C32.9758 31.0531 35.4593 31.5307 35.6503 31.6262C36.4145 31.7217 37.0831 31.8172 37.7518 31.8172C38.5159 31.8172 39.1846 31.7217 39.7577 31.5307C38.898 32.6769 37.9428 33.6321 36.8921 34.2052C31.6385 37.3574 20.8447 35.0649 17.9791 30.2889C16.9284 28.5696 16.2598 26.6592 15.9732 24.8443C17.215 24.9398 19.4119 24.6532 20.5582 24.1756C21.3223 25.704 22.6596 26.7547 24.379 26.9457C29.8236 27.5188 31.9251 24.3667 32.6892 21.0235C31.734 22.4563 30.1102 23.9846 28.1998 24.1756C28.0087 24.1756 27.9132 24.1756 27.7222 24.1756C24.9521 24.1756 22.6596 21.6921 22.6596 18.731C22.6596 16.8206 23.7103 15.1012 25.2387 14.146C21.7044 15.2923 19.6985 18.6355 19.6985 20.5459C19.6985 20.6414 19.6985 20.8324 19.6985 20.928C18.5523 21.2145 17.0239 21.4056 15.9732 21.31C16.1643 20.1638 16.4508 19.0176 16.9284 18.0624C17.5971 16.8206 18.4567 15.7699 19.5075 14.8147C21.8955 13.2864 25.1431 11.9491 28.6774 12.5222C33.5489 13.4774 34.8862 15.3878 35.0772 13.8595C35.1727 12.7132 34.8862 11.9491 34.5041 11.376C35.9369 12.2356 37.2742 13.6684 38.4204 15.1012C36.7011 14.8147 35.0772 15.3878 33.6444 16.534C34.0265 17.2982 34.0265 18.4444 33.5489 19.5907C35.3638 17.6803 37.5607 16.7251 40.0443 17.2982C40.2353 17.5848 40.5219 17.9668 40.7129 18.2534C41.095 18.731 41.3815 19.2086 41.5726 19.4952C41.7636 19.7817 42.0502 20.0683 42.2412 20.2593C43.1009 21.31 44.0561 22.5518 43.8651 23.2204Z" fill="black"/>
<path d="M28.0088 14.0505C27.7222 14.0505 27.4357 14.0505 27.1491 14.1461H27.0536C26.8625 14.2416 26.576 14.2416 26.3849 14.3371C26.2894 14.3371 26.1939 14.4326 26.1939 14.4326C24.5701 15.1968 23.4238 16.8206 23.4238 18.731C23.4238 21.119 25.2387 23.316 27.6267 23.316C27.8177 23.316 27.8177 23.316 28.0088 23.316C28.8685 23.2205 29.7281 22.7429 30.4923 22.1697C30.5878 22.0742 30.6833 21.9787 30.7789 21.8832C31.352 21.3101 31.8296 20.7369 32.2117 20.0683C32.3072 19.9728 32.3072 19.8773 32.4027 19.6862C32.4027 19.6862 32.4027 19.5907 32.4982 19.5907C32.9758 18.54 33.0713 17.4893 32.7848 16.7251C31.7341 14.6237 29.4416 14.0505 28.0088 14.0505ZM26.3849 20.4504C25.8118 20.4504 25.4297 19.8773 25.4297 19.1131C25.4297 18.3489 25.9073 17.7758 26.3849 17.7758C26.9581 17.7758 27.3401 18.3489 27.3401 19.1131C27.3401 19.8773 26.9581 20.4504 26.3849 20.4504ZM31.7341 19.2086C31.543 18.3489 31.0654 17.1072 29.6326 16.4385C27.9133 15.6744 26.576 15.5789 25.5253 15.9609C26.1939 15.2923 27.1491 14.9102 28.1043 14.9102C29.155 14.9102 31.2565 15.3878 32.1161 17.1072C32.3072 17.4893 32.1161 18.3489 31.7341 19.2086Z" fill="black"/>
</svg>

<svg width="235" height="50" fill="none" xmlns="http://www.w3.org/2000/svg"><path d="M57.051 15.74h6.489l2.962 11.99 6.912-11.99h5.713l3.033 12.132 7.264-12.131h6.56L84.768 34.29h-7.617l-2.327-9.945-5.643 9.945h-7.476L57.05 15.74zm40.766 0h6.348l-3.245 18.55h-6.347l3.244-18.55zm.353-5.783c.423-2.398 1.974-3.385 4.372-3.385 2.398 0 3.668.987 3.245 3.385-.423 2.398-1.975 3.385-4.444 3.385-2.398 0-3.597-.917-3.173-3.385zm9.874 5.783h6.912l-2.046 7.617h.283c1.833-5.5 4.937-8.252 10.649-8.252 5.22.071 7.124 2.469 5.643 11.073l-1.411 8.04h-6.347l1.269-7.405c.917-5.219-.141-6.912-3.456-6.912-3.456 0-6.418 3.527-7.335 8.675l-.987 5.643h-6.348l3.174-18.479zm24.179 24.615l.987-5.43c1.34.916 4.796 1.692 8.534 1.692 5.36 0 7.406-1.763 8.464-6.489l.282-1.34c-1.693 3.738-5.643 5.642-10.086 5.642-5.854 0-9.239-3.526-8.181-9.591.987-5.854 5.713-9.733 11.214-9.733 4.514 0 7.899 2.397 8.04 6.63h.564l.494-5.996h6.277l-2.892 16.292c-1.199 6.7-6.7 9.663-14.035 9.663a34.31 34.31 0 01-9.662-1.34zm17.985-15.446c.564-3.174-2.046-4.725-5.149-4.725-3.174 0-6.136 1.551-6.7 4.725-.565 3.244 1.833 4.867 5.007 4.867 3.104.07 6.277-1.623 6.842-4.867zm8.957 8.534l.916-5.36c2.892 1.199 5.431 1.693 8.676 1.693 4.02 0 5.783-.353 5.994-1.482.565-2.962-15.657 1.058-14.246-6.84.775-4.303 5.501-6.278 11.99-6.278 2.256 0 5.995.423 9.098 1.058l-.917 5.22c-2.539-.565-5.431-1.059-8.252-1.059-3.879 0-5.642.423-5.854 1.34-.423 2.61 15.728-1.199 14.318 6.912-.776 4.443-5.502 6.207-11.99 6.207-2.892 0-6.771-.565-9.733-1.41zm46.619.847h-6.912l2.046-7.618h-.282c-1.834 5.501-4.937 8.252-10.65 8.252-5.219-.07-7.124-2.468-5.572-11.073l1.41-8.04h6.348l-1.269 7.405c-.917 5.22.141 6.912 3.455 6.912 3.456 0 6.419-3.526 7.406-8.604l.987-5.643h6.348l-3.315 18.408zm7.053-18.55h6.348l-3.244 18.55h-6.348l3.244-18.55zm.282-5.783c.424-2.398 1.975-3.385 4.444-3.385 2.398 0 3.667.987 3.244 3.385-.423 2.398-1.975 3.385-4.443 3.385-2.398 0-3.597-.917-3.245-3.385zm8.887 17.633l1.27-7.265h-2.398l.846-4.655h2.892l.775-4.444 5.995-.775-.916 5.219h4.513l-.846 4.655h-4.514l-1.058 6.136c-.493 3.033-.635 3.879 2.116 3.879.494 0 1.058-.07 1.763-.07l-.634 3.667c-1.834.494-3.456.776-5.502.776-4.866-.07-5.289-1.834-4.302-7.124z" fill="#000"/><circle cx="25" cy="25" r="25" fill="#C2FF46"/><path d="M9.669 27.423L9 36.307c1.815 3.152 8.692 8.596 14.997 8.692 9.36.095 13.755-8.692 13.755-8.692-2.962 1.91-4.872 2.197-8.024 2.292-8.788.191-17.098-6.018-20.06-11.176z" fill="#000"/><path d="M43.196 19.304l-.286-.286c.478-.192 1.146-.67 1.146-1.338 0-1.05-3.534-5.826-4.394-5.73-.477.095-1.05.572-1.433.954-1.241-1.337-2.674-2.674-4.298-3.247V9.37c.191-1.72-.095-3.82-1.337-4.298a1.628 1.628 0 00-.956 0c-.955.286-1.91 2.292-2.96 4.107-1.911.191-3.726.669-5.54 1.433-.478-1.433-1.53-2.58-2.866-3.439-1.72-.955-2.961-.669-3.726-.382-.86.287-1.623 1.433-1.91 2.961-.478 1.91.096 4.49 1.815 6.209a6.08 6.08 0 00-.764 1.337c-2.006 3.821-1.624 9.17 1.05 13.755 2.293 3.916 8.406 6.018 13.85 6.018 2.675 0 5.254-.478 7.07-1.624 2.292-1.337 3.916-3.82 5.253-6.304v-.096c.764-1.433 1.337-2.961 1.91-4.203l.382-1.05c.478-1.529-.764-3.057-2.006-4.49zM32.212 6.218c.19.19.573 1.146.382 2.865h-.096c-.286 0-.573-.095-.86-.095v-.86c.096-1.05.383-1.72.574-1.91zm-16.143 3.82c.19-1.05.668-1.814 1.337-2.1.191-.192.478-.192.669-.192.573 0 1.146.191 1.623.478 1.147.668 1.91 1.624 2.293 2.865-.287.191-.573.287-.86.478-.382-.478-.764-1.05-1.146-1.528-.191-.191-1.146-1.051-2.101-.86-.096 0-.096.096-.096.096 0 .095 0 .095.096.095.668 0 1.146.573 1.528 1.146.382.478.573 1.146.764 1.72-1.05.764-2.101 1.623-2.865 2.674-1.242-1.433-1.624-3.343-1.242-4.871zM43.865 23.22l-.382.956c-.573 1.337-1.146 2.865-1.91 4.298-.478.86-1.242 1.337-2.484 1.624.764-1.05 1.528-2.675 1.528-4.012.096 0 .096-.095.191-.191l1.91-2.006c.478-.382.574-1.05.192-1.242-1.05-.382-3.534.287-4.49.86-.573.287-.573.955-.19 1.242l1.337 1.337h.095c0 .955-.573 2.197-1.242 3.152-.286.478-.573.764-.764.955-2.101 0-4.012-.764-4.585-1.146.096 0 .096 0 .191-.095.287-.096.669-.287.956-.478v-.096c-.383-.286-.765-.382-1.147-.286-.382 0-.86.287-1.146.669-.287.382-.382.86-.382 1.241 0 .382.096.765.191 1.147h.095c0-.383.096-.765.192-1.051.955.955 3.438 1.433 3.63 1.528.763.096 1.432.191 2.1.191.765 0 1.434-.095 2.007-.286-.86 1.146-1.815 2.101-2.866 2.674-5.254 3.152-16.047.86-18.913-3.916a15.096 15.096 0 01-2.006-5.445c1.242.096 3.439-.19 4.585-.668.764 1.528 2.102 2.579 3.821 2.77 5.445.573 7.546-2.58 8.31-5.923-.955 1.433-2.579 2.962-4.49 3.153h-.477c-2.77 0-5.062-2.484-5.062-5.445 0-1.91 1.05-3.63 2.579-4.585-3.535 1.146-5.54 4.49-5.54 6.4v.382c-1.147.287-2.675.478-3.726.382.191-1.146.478-2.292.955-3.248.67-1.241 1.529-2.292 2.58-3.247 2.387-1.529 5.635-2.866 9.17-2.293 4.87.955 6.208 2.866 6.4 1.338.095-1.147-.192-1.91-.574-2.484 1.433.86 2.77 2.292 3.916 3.725-1.719-.286-3.343.287-4.776 1.433.383.764.383 1.91-.095 3.057 1.815-1.91 4.012-2.866 6.495-2.293.191.287.478.669.669.955.382.478.669.956.86 1.242.19.287.477.573.668.764.86 1.051 1.815 2.293 1.624 2.961z" fill="#000"/><path d="M28.009 14.05c-.287 0-.573 0-.86.096h-.095c-.191.096-.478.096-.67.191-.095 0-.19.096-.19.096-1.624.764-2.77 2.388-2.77 4.298 0 2.388 1.815 4.585 4.203 4.585h.382c.86-.095 1.72-.573 2.483-1.146l.287-.287c.573-.573 1.05-1.146 1.433-1.815.095-.095.095-.19.19-.382 0 0 0-.095.096-.095.478-1.051.573-2.102.287-2.866-1.05-2.101-3.343-2.675-4.776-2.675zm-1.624 6.4c-.573 0-.955-.573-.955-1.337s.477-1.337.955-1.337c.573 0 .955.573.955 1.337s-.382 1.337-.955 1.337zm5.35-1.241c-.192-.86-.67-2.102-2.102-2.77-1.72-.765-3.057-.86-4.108-.478a3.69 3.69 0 012.58-1.05c1.05 0 3.151.477 4.011 2.196.191.382 0 1.242-.382 2.102z" fill="#000"/></svg>
